!!!!SEGMENT: pl-cz--iii-623--001-007_raszek-waclaw--nieszpory-iste-confessor.krn
!!!cenid: 18xx:1010
!!!COM: Raszek, Wacław
!!!COM-rismID: pe30020314
!!!CDT: <1848->1848
!!!CNT:
!!!OPR: Nieszpory
!!!OTL: Iste confessor
!!!OMV: 007
!!!PDT:
!!!AGN: Sacred
!!!SMS-siglum: PL-CZ
!!!SMS-shelfmark: III-623
!!!SMS-shelfwork: 001-007 M
!!!SMS-variant:
!!!SMS-altvar:
!!!NIFC-rismSourceID: 300001052
!!!NIFC-islandoraID: pl-cz:39506
!!!URL-pdf-islandora: https://repozytorium.nifc.pl/islandora/object/pl-cz%3A39506/datastream/PDF/view
!!!URL-scan:
!!!ONB-nifc: UWAGA: części Nieszporów: Dixit Dominus, Confitebor, Beatus vir, Laudate pueri, In exitu, Laudate Dominum, Iste confessor, Magnificat, Salve Regina. Uwaga: w Canto 1,2 i Tenorze zaburzona kolejność części
!!!AIN: 1 bass 2 clars 1 organ 2 soprn 1 tenor
!!!key:
**kern	**kern	**text	**text	**kern	**text	**text	**kern	**text	**text	**kern	**text	**text	**kern	**kern
*part7	*part6	*part6	*part6	*part5	*part5	*part5	*part4	*part4	*part4	*part3	*part3	*part3	*part2	*part1
*staff7	*staff6	*staff6	*staff6	*staff5	*staff5	*staff5	*staff4	*staff4	*staff4	*staff3	*staff3	*staff3	*staff2	*staff1
*IGcont	*IGcoro	*	*	*IGcoro	*	*	*IGcoro	*	*	*IGcoro	*	*	*	*
*ICklav	*ICvox	*	*	*ICvox	*	*	*ICvox	*	*	*ICvox	*	*	*ICww	*ICww
*Iorgan	*Ibass	*	*	*Itenor	*	*	*Isoprn	*	*	*Isoprn	*	*	*Iclars	*Iclars
*I"Basso	*I"Baſso.	*	*	*I"Tenore	*	*	*I"Canto Secondo	*	*	*I"Canto Primo	*	*	*I"Clarinetto Secondo. in B.	*I"Clarinetto Primo in B.
*I'org	*I'B	*	*	*I'T	*	*	*I'S 2	*	*	*I'S 1	*	*	*I'Cl. II in B♭	*I'Cl. I in B
*clefF4	*clefF4	*	*	*clefC4	*	*	*clefC1	*	*	*clefC1	*	*	*clefG2	*clefG2
*	*	*	*	*	*	*	*	*	*	*	*	*	*ITrd1c2	*ITrd1c2
*k[b-]	*k[b-]	*	*	*k[b-]	*	*	*k[b-]	*	*	*k[b-]	*	*	*k[b-]	*k[b-]
*F:	*F:	*	*	*F:	*	*	*F:	*	*	*F:	*	*	*F:	*F:
*M2/2	*M2/2	*	*	*M2/2	*	*	*M2/2	*	*	*M2/2	*	*	*M2/2	*M2/2
*met(c|)	*met(c|)	*	*	*met(c|)	*	*	*met(c|)	*	*	*met(c|)	*	*	*met(c|)	*met(c|)2\right
*2\right	*2\right	*	*	*2\right	*	*	*2\right	*	*	*2\right	*	*	*2\right	*2\right
=1	=1	=1	=1	=1	=1	=1	=1	=1	=1	=1	=1	=1	=1	=1
!LO:TX:a:t=Adagio	!LO:TX:a:t=Adagio	!	!	!LO:TX:a:t=Adagio	!	!	!LO:TX:a:t=Adagio	!	!	!LO:TX:a:t=Adagio	!	!	!LO:TX:a:t=Adagio	!LO:TX:a:t=Adagio
2F\	2F\	O-	Kto-	2c\	O-	Kto-	2a\	O-	Kto-	2cc\	O-	Kto-	2a\	2cc\
2C/	2C/	-to	-ry	2e\	-to	-ry	2g\	-to	-ry	2b-\	-to	-ry	2b-\	2ee\
=2	=2	=2	=2	=2	=2	=2	=2	=2	=2	=2	=2	=2	=2	=2
2D/	2D\	iest	wprzy-	2f\	iest	wprzy-	2f/	jest	wprzy-	2a\	jest	wprzy-	4a\	4ff\
.	.	.	.	.	.	.	.	.	.	.	.	.	4a\	4ff\
2r	2r	.	.	4r	.	.	2r	.	.	4r	.	.	4a\	4ff\
.	.	.	.	4d\	wy-	-kła-	.	.	.	4ff\	Wy-	-kła-	4r	4r
=3	=3	=3	=3	=3	=3	=3	=3	=3	=3	=3	=3	=3	=3	=3
!	!	!	!	!LO:LB:g=original	!	!	!	!	!	!	!	!	!	!
4BB-\	4r	.	.	2.d\	-zna-	-dney	4r	.	.	2.ff\	-znaw-	-dney	4r	4r
4D\	4BB-/	wy-	-kła-	.	.	.	4f/	wy-	-kła-	.	.	.	4dd\	4ff\
4F\	4B-\	-znaw-	-dney	.	.	.	4f/	-znaw-	-dney	.	.	.	4dd\	4ff\
4B-\	4BB-/	-ca	po-	4B-\	-wca	po-	4f/	-ca	po-	4dd\	-ca	po-	4b-\	4dd\
=4	=4	=4	=4	=4	=4	=4	=4	=4	=4	=4	=4	=4	=4	=4
!	!LO:LB:g=original	!	!	!	!	!	!LO:LB:g=original	!	!	!LO:LB:g=original	!	!	!	!
2F\	2F\	Pa-	-ko-	2B-\	Pa-	-ko-	2f/	Pa-	-ko-	2dd\	Pa-	-ko-	2b-\	2dd\
2FF/	2F\	-na	-rze	2A\	-na	-rze	2f/	-na	-rze	2cc\	-na	-rze	2a\	2cc\
=5	=5	=5	=5	=5	=5	=5	=5	=5	=5	=5	=5	=5	=5	=5
!LO:LB:g=original	!	!	!	!	!	!	!	!	!	!	!	!	!LO:LB:g=original	!
2F\	2F\	Kto-	wiodł	2A\	Kto-	wiodł	2f/	kto-	wiodł	2cc\	Kto-	wiodł	2r	2r
2D\	2D\	-re-	swe	2A\	-re-	swe	2f#X/	-re-	swe	2dd\	-re-	swe	2a\	2dd\
=6	=6	=6	=6	=6	=6	=6	=6	=6	=6	=6	=6	=6	=6	=6
!	!	!	!	!	!	!	!	!	!	!	!	!	!	!LO:LB:g=original
2G\	2G\	-go	źy-	2d\	-go	ży-	2g\	-go	ży-	2b-\	-go	ży-	4b-\	4r
.	.	.	.	.	.	.	.	.	.	.	.	.	4d/	4b-\
2E\	2E\	czci	-cie	2c\	czci	-cie	2g\	czci	-cie	2cc\	czci	-cie	2g/	2cc\
=7	=7	=7	=7	=7	=7	=7	=7	=7	=7	=7	=7	=7	=7	=7
!	!	!	!	!LO:LB:g=original	!	!	!	!	!	!	!	!	!	!
4F\	(2F\	Zie-	bez	2.c\	zie-	bez	2.f/	zie-	bez	2.a\	zie-	bez	4a\	4cc\
4F\	.	.	.	.	.	.	.	.	.	.	.	.	4cc\	4aa\
4D\	4D/)	.	.	.	.	.	.	.	.	.	.	.	4dd\	4ff\
4BB-\	4BB-/	-mia	na-	4d\	-mia	na-	4f/	-mia	na-	4b-\	-mia	na-	4gg\	4bb-\
=8	=8	=8	=8	=8	=8	=8	=8	=8	=8	=8	=8	=8	=8	=8
!	!LO:LB:g=original	!	!	!	!	!	!LO:LB:g=original	!	!	!LO:LB:g=original	!	!	!	!
2C/	2C/	ca-	-ga-	2c\	ca-	-ga-	2f/	Ca-	-ga-	2a\	Ca-	-ga-	2ff\	2aa\
2C;/	2C;/	-ła	-nÿ	2c;\	-ła	-nÿ	2e;/	-ła	-ny	2g;\	-ła	-ny	2ee;\	2gg;\
=9	=9	=9	=9	=9	=9	=9	=9	=9	=9	=9	=9	=9	=9	=9
2F\	2F\	Kto-	I	2c\	Kto-	J	2f/	Kto-	I	2a\	Kto-	J	2cc\	2aa\
2C/	2C/	-re-	przÿ	2B-\	-re-	przy	2e/	-re-	przy	2g\	-re-	przy	4b-\	4gg\
.	.	.	.	.	.	.	.	.	.	.	.	.	4b-\	4gg\
=10	=10	=10	=10	=10	=10	=10	=10	=10	=10	=10	=10	=10	=10	=10
4D\	2.D\	-mu	cnot	2.A\	-mu	cnot	2.f/	-mu	cnót	2.f/	-[[mu]]	cnot	4a\	4ff\
4DD/	.	.	.	.	.	.	.	.	.	.	.	.	4a\	4ff\
4D\	.	.	.	.	.	.	.	.	.	.	.	.	4a\	4ff\
!	!	!	!	!	!	!	!	!	!	!LO:TX:a:t=P:problem=przekreślona ćwierćnuta	!	!	!	!
!	!	!	!	!	!	!	!	!	!	!LO:TX:b:t=n	!	!	!	!
4r	4r	.	.	4r	.	.	4r	.	.	4r	.	.	4r	4r
=11	=11	=11	=11	=11	=11	=11	=11	=11	=11	=11	=11	=11	=11	=11
!LO:LB:g=original	!	!	!	!LO:LB:g=original	!	!	!	!	!	!	!	!	!LO:LB:g=original	!
2D\	2D/	wie-	ro-	2B-\	wie-	roz-	2f/	wie-	ro-	2b-\	wie-	ro-	4r	4r
.	.	.	.	.	.	.	.	.	.	.	.	.	4f/	4ff\
4C/	4C/	-cznie	-zli-	4A\	-cznie	-li-	4f/	-cznie	-zli-	4cc\	-cznie	-zli-	4f/	4ff\
4BB-/	4BB-/	iest	-cznych	4B-\	iest	-cznych	4f/	iest	-cznych	4dd\	iest	-cznych	4b-/	4ff\
=12	=12	=12	=12	=12	=12	=12	=12	=12	=12	=12	=12	=12	=12	=12
!	!LO:LB:g=original	!	!	!	!	!	!LO:LB:g=original	!	!	!LO:LB:g=original	!	!	!	!LO:LB:g=original
2.C/	2.C/	Da-	zbio-	2c\	da-	zbio-	2e/	Da-	zbio-	2g\	da-	zbio-	4g/	4ee\
.	.	.	.	.	.	.	.	.	.	.	.	.	4ee\	4gg\
.	.	.	.	2G/	-na	-rze	2e/	-na	-rze	2cc\	-na	-rze	4ee\	4ccc\
4BB-/	4BB-/	-na	-rze	.	.	.	.	.	.	.	.	.	4r	4r
=13	=13	=13	=13	=13	=13	=13	=13	=13	=13	=13	=13	=13	=13	=13
4AA/	(4AA/	ra-	Miesz-	(4A\	ra-	Miesz-	2f/	ra-	Miesz-	(4cc\	ra-	Miesz-	2a\	2.ff\
4F\	4F\)	.	.	4c\)	.	.	.	.	.	4a\)	.	.	.	.
4G\	(4G\	-dość	-kał	(4B-\	-dość,	-kał-	2f/	-dość	-kał	(4b-\	-dość	-kał	4b-\	.
4A\	4A\)	.	.	4A\)	.	.	.	.	.	4cc\)	.	.	4cc\	4ee-\
=14	=14	=14	=14	=14	=14	=14	=14	=14	=14	=14	=14	=14	=14	=14
!	!	!	!	!LO:LB:g=original	!	!	!	!	!	!	!	!	!	!
4B-\	(4B-\	J	po-	(4d\	J	-po-	2.f/	I	po-	(4dd\	J	po-	2f/	4dd\
4c\	4c\	.	.	4c\	.	.	.	.	.	4ee\	.	.	.	4eenX\
4d\	4d\)	.	.	4B-\)	.	.	.	.	.	4ff\)	.	.	4f/	4ff\
4B-\	4B-\	nie-	-mię-	4B-\	nie-	-mię-	4f/	nie-	-mię-	4dd\	nie-	-mię-	4r	4r
=15	=15	=15	=15	=15	=15	=15	=15	=15	=15	=15	=15	=15	=15	=15
!LO:LB:g=original	!LO:LB:g=original	!	!	!	!	!	!LO:LB:g=original	!	!	!LO:LB:g=original	!	!	!	!
4c\	2.c\	-bie-	-dzy	2A\	-bies-	-dzy	2f/	-bies-	-dzy	(>2cc\	-bie-	-dzy	2ff\	2aa\
4C/	.	.	.	.	.	.	.	.	.	.	.	.	.	.
4C/	.	.	.	8A\L	.	.	8a/L	.	.	8cc\L	.	.	8aa\L	(8ccc\L
.	.	.	.	8B-\	.	.	8g/J	.	.	8b-\)	.	.	8gg\	8bb-\)
4C/	4C/	-ska	zie-	8c\	-ka	zie-	8f/L	-ka	zie-	(8a\	-ska	zie-	8ff\	(8aa\
.	.	.	.	8B-\J	.	.	8e/J	.	.	8g\J)	.	.	8ee\J	8gg\J)
=16	=16	=16	=16	=16	=16	=16	=16	=16	=16	=16	=16	=16	=16	=16
!	!	!	!	!	!	!	!	!	!	!	!	!	!LO:LB:g=original	!
2CC/	2C/	chwa-	-mia-	2B-\	chwa-	-mia-	2e/	chwa-	-mia-	2g/	chwa-	-mia-	4ee\	2gg\
.	.	.	.	.	.	.	.	.	.	.	.	.	8cc\L	.
.	.	.	.	.	.	.	.	.	.	.	.	.	8b-\J	.
2FF;/	2F;\	-ła	-ny	2A;\	-ła	-ny.	2f;/	-ła.	-ny	2f;/	-ła.	-ny	2a;\	2ff;\
!	!	!	!	!	!	!	!	!	!	!	!	!	!	!LO:TX:a:t=DC.
==;	==	==	==	==;;	==	==	==	==	==	==	==	==	==;	==
*-	*-	*-	*-	*-	*-	*-	*-	*-	*-	*-	*-	*-	*-	*-
!!!system-decoration: [(s1,s2)][(s3,s4,s5,s6)]s7
!!!RDF**kern: > = above
!!!RDF**kern: < = below
!!!ENC: Berenika Jozajtis
!!!END: 2020-09-30
!!!ENC: Krzysztof Stępień
!!!END: 2021-11-19
!!!YEC: Copyright 2022 Narodowy Instytut Fryderyka Chopina (https://polishscores.org)
!!!YEM: Licence CC BY 4.0 (https://creativecommons.org/licenses/by/4.0)
